public/assets/img/icons/where01.svg

<svg width="80" height="80" viewBox="0 0 80 80" fill="none" xmlns="http://www.w3.org/2000/svg">
<path d="M71.4642 15.3026H73.936C74.7983 15.3026 75.4975 14.6034 75.4975 13.7411C75.4975 12.8789 74.7983 12.1797 73.936 12.1797H68.0024C67.1402 12.1797 66.4409 12.8789 66.4409 13.7411V19.6747C66.4409 20.537 67.1402 21.2362 68.0024 21.2362C68.8647 21.2362 69.5639 20.537 69.5639 19.6747V17.9567C74.3017 24.2995 76.877 31.9956 76.877 40C76.877 60.3342 60.3342 76.877 40 76.877C19.6658 76.877 3.12295 60.3342 3.12295 40C3.12295 19.6658 19.6658 3.12295 40 3.12295C41.5039 3.12295 43.0174 3.2143 44.4989 3.39434C45.3538 3.4977 46.1335 2.88889 46.2375 2.03273C46.3416 1.17673 45.732 0.398176 44.8759 0.294182C43.2697 0.0989975 41.6294 0 40 0C29.3156 0 19.2706 4.16071 11.7157 11.7157C4.16071 19.2706 0 29.3156 0 40C0 50.6844 4.16071 60.7294 11.7157 68.2842C19.2706 75.8393 29.3156 80 40 80C50.6844 80 60.7294 75.8393 68.2842 68.2842C75.8393 60.7294 80 50.6844 80 40C80 30.9839 76.9879 22.3283 71.4642 15.3026Z" fill="#333333"/>
<path d="M16.9379 23.5803C16.2092 23.119 15.2446 23.3361 14.7832 24.0643C11.2185 29.6944 9.6405 36.4653 10.3399 43.1298C11.0496 49.8932 14.0937 56.2712 18.9114 61.0891C24.7256 66.9033 32.3629 69.8104 40.0004 69.8104C47.6379 69.8104 55.2751 66.9034 61.0894 61.0891C72.7179 49.4606 72.7179 30.5396 61.0894 18.9113C56.279 14.101 49.9114 11.058 43.1593 10.3429C36.5071 9.63786 29.7436 11.2036 24.1158 14.7508C23.3862 15.2106 23.1677 16.1748 23.6274 16.9043C24.0873 17.634 25.0515 17.8525 25.781 17.3928C36.3894 10.7065 50.0003 12.2388 58.881 21.1195C69.2918 31.5304 69.2918 48.4699 58.881 58.8807C48.4703 69.2917 31.5305 69.2917 21.1198 58.8807C12.3618 50.1227 10.8066 36.1829 17.422 25.7351C17.8831 25.0064 17.6665 24.0417 16.9379 23.5803Z" fill="#333333"/>
<path d="M60.2998 41.5867H62.2254C63.0876 41.5867 63.7868 40.8875 63.7868 40.0253C63.7868 39.163 63.0876 38.4638 62.2254 38.4638H60.2998C59.4375 38.4638 58.7383 39.163 58.7383 40.0253C58.7383 40.8875 59.4374 41.5867 60.2998 41.5867Z" fill="#333333"/>
<path d="M16.2129 39.9748C16.2129 40.837 16.9121 41.5362 17.7744 41.5362H19.7C20.5622 41.5362 21.2615 40.837 21.2615 39.9748C21.2615 39.1125 20.5622 38.4133 19.7 38.4133H17.7744C16.9121 38.4133 16.2129 39.1124 16.2129 39.9748Z" fill="#333333"/>
<path d="M41.5878 19.7006V17.775C41.5878 16.9128 40.8886 16.2135 40.0263 16.2135C39.1641 16.2135 38.4648 16.9128 38.4648 17.775V19.7006C38.4648 20.5629 39.1641 21.2621 40.0263 21.2621C40.8886 21.2621 41.5878 20.5629 41.5878 19.7006Z" fill="#333333"/>
<path d="M38.4141 60.2995V62.2251C38.4141 63.0874 39.1133 63.7866 39.9755 63.7866C40.8378 63.7866 41.537 63.0874 41.537 62.2251V60.2995C41.537 59.4373 40.8378 58.738 39.9755 58.738C39.1133 58.738 38.4141 59.4371 38.4141 60.2995Z" fill="#333333"/>
<path d="M32.1735 29.9649C31.5636 29.3553 30.5752 29.3553 29.9651 29.9649C29.3554 30.5747 29.3554 31.5634 29.9651 32.1733L35.2571 37.4653C34.8516 38.2211 34.621 39.0841 34.621 40C34.621 42.9662 37.0341 45.3793 40.0003 45.3793C42.9664 45.3793 45.3795 42.9662 45.3795 40C45.3795 39.0841 45.1488 38.2211 44.7434 37.4653L55.4212 26.7875C56.031 26.1777 56.031 25.189 55.4212 24.5791C54.8113 23.9695 53.8229 23.9695 53.2128 24.5791L42.535 35.2569C41.7793 34.8514 40.9162 34.6208 40.0003 34.6208C39.0843 34.6208 38.2213 34.8516 37.4655 35.2569L32.1735 29.9649ZM42.2566 40C42.2566 41.2442 41.2444 42.2564 40.0003 42.2564C38.7561 42.2564 37.7439 41.2442 37.7439 40C37.7439 38.7559 38.7561 37.7437 40.0003 37.7437C41.2444 37.7437 42.2566 38.7559 42.2566 40Z" fill="#333333"/>
<path d="M21.1186 21.1186C21.4106 20.8281 21.5775 20.4253 21.5775 20.0146C21.5775 19.6039 21.4106 19.2026 21.1186 18.9106C20.8281 18.6204 20.4267 18.4531 20.0146 18.4531C19.6039 18.4531 19.2011 18.6202 18.9106 18.9106C18.6204 19.2011 18.4531 19.6039 18.4531 20.0146C18.4531 20.4268 18.6202 20.8281 18.9106 21.1186C19.2011 21.4088 19.6039 21.5761 20.0146 21.5761C20.4267 21.5761 20.8281 21.4088 21.1186 21.1186Z" fill="#333333"/>
<path d="M50.8154 4.6654C51.2278 4.6654 51.6306 4.49972 51.9209 4.20788C52.2113 3.91745 52.3786 3.51599 52.3786 3.10392C52.3786 2.69325 52.2115 2.29039 51.9209 1.99996C51.6306 1.70968 51.2278 1.54245 50.8154 1.54245C50.4047 1.54245 50.0019 1.70952 49.7116 1.99996C49.4211 2.29039 49.2539 2.69325 49.2539 3.10392C49.2539 3.51615 49.421 3.91745 49.7116 4.20788C50.0019 4.49972 50.4047 4.6654 50.8154 4.6654Z" fill="#333333"/>
</svg>

<svg width="80" height="80" fill="none" xmlns="http://www.w3.org/2000/svg"><path d="M71.464 15.303h2.472a1.562 1.562 0 0 0 0-3.123h-5.934c-.862 0-1.561.699-1.561 1.561v5.934a1.562 1.562 0 0 0 3.123 0v-1.718A36.757 36.757 0 0 1 76.877 40c0 20.334-16.543 36.877-36.877 36.877C19.666 76.877 3.123 60.334 3.123 40 3.123 19.666 19.666 3.123 40 3.123c1.504 0 3.017.091 4.499.271a1.563 1.563 0 0 0 .377-3.1A40.57 40.57 0 0 0 40 0C29.316 0 19.27 4.16 11.716 11.716 4.16 19.27 0 29.316 0 40c0 10.684 4.16 20.73 11.716 28.284C19.27 75.84 29.316 80 40 80c10.684 0 20.73-4.16 28.284-11.716C75.84 60.73 80 50.684 80 40a39.87 39.87 0 0 0-8.536-24.697z" fill="#333"/><path d="M16.938 23.58a1.562 1.562 0 0 0-2.155.484C11.22 29.694 9.64 36.465 10.34 43.13a29.893 29.893 0 0 0 8.571 17.96c5.815 5.813 13.452 8.72 21.09 8.72 7.637 0 15.274-2.907 21.088-8.72 11.629-11.63 11.629-30.55 0-42.179a29.894 29.894 0 0 0-17.93-8.568c-6.652-.705-13.415.86-19.043 4.408a1.561 1.561 0 0 0 1.665 2.642c10.608-6.687 24.22-5.154 33.1 3.726 10.41 10.411 10.41 27.35 0 37.762-10.41 10.41-27.35 10.41-37.761 0-8.758-8.758-10.313-22.698-3.698-33.146a1.562 1.562 0 0 0-.484-2.155z" fill="#333"/><path d="M60.3 41.587h1.925a1.562 1.562 0 0 0 0-3.123H60.3a1.562 1.562 0 0 0 0 3.123zM16.213 39.975c0 .862.7 1.561 1.561 1.561H19.7a1.562 1.562 0 0 0 0-3.123h-1.926c-.862 0-1.561.7-1.561 1.562zM41.588 19.7v-1.925a1.562 1.562 0 0 0-3.123 0v1.926a1.562 1.562 0 0 0 3.123 0zM38.414 60.3v1.925a1.562 1.562 0 0 0 3.123 0V60.3a1.562 1.562 0 0 0-3.123 0zM32.173 29.965a1.562 1.562 0 0 0-2.208 2.208l5.292 5.292A5.346 5.346 0 0 0 34.621 40a5.385 5.385 0 0 0 5.38 5.38A5.385 5.385 0 0 0 45.38 40c0-.916-.231-1.779-.637-2.535l10.678-10.678a1.562 1.562 0 0 0-2.208-2.208L42.535 35.257A5.346 5.346 0 0 0 40 34.62c-.916 0-1.779.23-2.535.636l-5.292-5.292zM42.257 40A2.259 2.259 0 0 1 40 42.256 2.259 2.259 0 0 1 37.744 40 2.259 2.259 0 0 1 40 37.744 2.259 2.259 0 0 1 42.257 40zM21.119 21.119c.292-.29.459-.694.459-1.104 0-.411-.167-.812-.46-1.104a1.572 1.572 0 0 0-1.103-.458c-.411 0-.814.167-1.104.458-.29.29-.458.693-.458 1.104 0 .412.167.813.458 1.104.29.29.693.457 1.104.457.412 0 .813-.167 1.104-.457zM50.815 4.665c.413 0 .816-.165 1.106-.457.29-.29.458-.692.458-1.104 0-.41-.167-.814-.458-1.104a1.574 1.574 0 0 0-1.106-.458c-.41 0-.813.168-1.103.458-.29.29-.458.693-.458 1.104a1.567 1.567 0 0 0 1.561 1.561z" fill="#333"/></svg>
